svgs/icons/sm/lock.svg

<svg xmlns="http://www.w3.org/2000/svg" viewBox="0 0 16 16" enable-background="new 0 0 16 16"><path fill="#34363D" d="M12.3 6v-1.9c0-2.3-1.9-4.1-4.1-4.1h-.4c-2.2 0-4.1 1.9-4.1 4.1v1.9c-.9.1-1.7.9-1.7 1.8v6.3c0 1 .8 1.8 1.8 1.8h8.3c1 0 1.8-.8 1.8-1.8v-6.3c.1-.9-.7-1.7-1.6-1.8zm-4.5-4h.3c1.2 0 2.1.9 2.1 2.1v1.9h-4.5v-1.9c0-1.2 1-2.1 2.1-2.1z"/></svg>

<svg xmlns="http://www.w3.org/2000/svg" viewBox="0 0 16 16"><path fill="#34363D" d="M12.3 6V4.1c0-2.3-1.9-4.1-4.1-4.1h-.4C5.6 0 3.7 1.9 3.7 4.1V6c-.9.1-1.7.9-1.7 1.8v6.3c0 1 .8 1.8 1.8 1.8h8.3c1 0 1.8-.8 1.8-1.8V7.8c.1-.9-.7-1.7-1.6-1.8zM7.8 2h.3c1.2 0 2.1.9 2.1 2.1V6H5.7V4.1c0-1.2 1-2.1 2.1-2.1z"/></svg>
